X: 718
T: Ey Muhterem Ahali
C: Mildan Niyazi Ayomak
O: Turkey
F: http://compmusic.upf.edu/node/140
N: nihavent--mars--nimsofyan--ey_muhterem--mildan_niyazi_bey
N: makam= nihavent
N: form= mars
N: usul= nimsofyan = 2/4
M: 2/4
L: 1/16
K: C _B _e  
Q: 1/4=108
%%MIDI tuningsystem comma53
G6AB  | d2B2 d2B2  | G6^FG  | d6AB  | c2_1/4B2 c2d2  | \
w:  KÜŞAT  |   |   |   |   | 
edc4_1/4B2  | 
w:   | 
c6de  | g6^f2  | z2ga b2a2  | g2d2 e2=e2  | \
w:   |   |   |   | 
f6=eg  | f6c^c  | d2^c2 d2B2  | 
w:   |   |   | 
A2d2 B2G2  | A6dB  | G8  | G6AB  | d2B2 d2B2  | \
w:   |   |   |  KÜŞAT  |   | 
G6^FG  | d6AB  | 
w:   |   | 
c2_1/4B2 c2d2  | edc4_1/4B2  | c6de  | g6^f2  | \
w:   |   |   |   | 
z2ga b2a2  | g2d2 e2=e2  | 
w:   |   | 
f6=eg  | f6c^c  | d2^c2 d2B2  | A2d2 B2G2  | \
w:   |   |   |   | 
A6dB  | G8  | d6c2  | B4 A4  | 
w:   |   |  Ey  muh  |  te rem   | 
G4 ^F4  | d8  | z4 A2B2  | c4 d4  | e4 g4  | d8  | \
w:  a ha  |  li   |  kul la  |  nın  yer  |  li  ma  |  li    | 
g6^f2  | g4 e4  | d4 e4  | f8  | f4 b4  | g4 ^f4  | 
w:  Meş hut_  |  ol sun   |  biz de   |  de   |  zen gin  |  li ğin   | 
e4 d4  | e8  | d6^c2  | d4 B4  | A4 B4  | c8  | c4 e4  | \
w:  ke mâ  |  li    |  Meş hut_  |  ol sun   |  biz de   |  de   |  zen gin  | 
d4 A4  | B4 ^F4  | G8  | F6G2  | A4 B4  | 
w:  li ğin   |  ke mâ  |  li    |  Nak ti  |  miz  el  | 
d4 c4  | B8  | z4 A2B2  | c4 d4  | c4 B4  | f8  | \
w:  de  kal  |  sın   |  re fa  |  hı mız   |  ço ğal  |  sın    | 
z4 g2f2  | e4 d4  | ^c4 d4  | e8  | z4 A2B2  | 
w:  De ğil   |  mi dir   |  bor cu  |  muz   |  dü şün  | 
c4 e4  | d4 B4  | F8  | F6G2  | A4 B4  | d4 c4  | B8  | \
w:  mek  is  |  tik ba  |  li    |  Nak ti  |  miz  el  |  de  kal  |  sın   | 
z4 A2B2  | c4 d4  | c4 B4  | f8  | z4 g2f2  | 
w:  re fa  |  hı mız   |  ço ğal  |  sın    |  De ğil   | 
e4 d4  | ^c4 d4  | e8  | z4 A2B2  | c4 e4  | d4 B4  | d8  | \
w:  mi dir   |  bor cu  |  muz   |  dü şün  |  mek  is  |  tik ba  |  li    | 
d2d2 d2d2  | d2d6  | g16  | d2e2 d2c2  | 
w:  Ey  muh te rem   |  a ha  |  li   |  kul la nın  yer  | 
B4 c4  | d16  | f2f2 f2f2  | =e2g6  | f16  | d2e2 d2c2  | \
w:  li  ma  |  li    |  Ey  muh te rem   |  a ha  |  li   |  kul la nın  yer  | 
B4 A4  | G16  | G6AB  | d2B2 d2B2  | 
w:  li  ma  |  li    |  KÜŞAT  |   | 
G6^FG  | d6AB  | c2_1/4B2 c2d2  | edc4_1/4B2  | \
w:   |   |   |   | 
c6de  | g6^f2  | z2ga b2a2  | 
w:   |   |   | 
g2d2 e2=e2  | f6=eg  | f6c^c  | d2^c2 d2B2  | \
w:   |   |   |   | 
A2d2 B2G2  | A6dB  | 
w:   |   | 
G8  | G6AB  | d2B2 d2B2  | G6^FG  | d6AB  | c2_1/4B2 c2d2  | \
w:   |  KÜŞAT  |   |   |   |   | 
edc4_1/4B2  | 
w:   | 
c6de  | g6^f2  | z2ga b2a2  | g2d2 e2=e2  | \
w:   |   |   |   | 
f6=eg  | f6c^c  | d2^c2 d2B2  | 
w:   |   |   | 
A2d2 B2G2  | A6dB  | G8  | d6c2  | B4 A4  | G4 ^F4  | d8  | \
w:   |   |   |  Ey  muh  |  te rem   |  a ha  |  li   | 
z4 A2B2  | c4 d4  | e4 g4  | 
w:  kul la  |  nın  yer  |  li  ma  | 
d8  | g6^f2  | g4 e4  | d4 e4  | f8  | f4 b4  | g4 ^f4  | \
w:  li    |  Meş hut_  |  ol sun   |  biz de   |  de   |  zen gin  |  li ğin   | 
e4 d4  | e8  | d6^c2  | d4 B4  | A4 B4  | 
w:  ke mâ  |  li    |  Meş hut_  |  ol sun   |  biz de   | 
c8  | c4 e4  | d4 A4  | B4 ^F4  | G8  | F6G2  | A4 B4  | \
w:  de   |  zen gin  |  li ğin   |  ke mâ  |  li    |  Nak ti  |  miz  el  | 
d4 c4  | B8  | z4 A2B2  | c4 d4  | c4 B4  | 
w:  de  kal  |  sın   |  re fa  |  hı mız   |  ço ğal  | 
f8  | z4 g2f2  | e4 d4  | ^c4 d4  | e8  | z4 A2B2  | \
w:  sın    |  De ğil   |  mi dir   |  bor cu  |  muz   |  dü şün  | 
c4 e4  | d4 B4  | F8  | F6G2  | A4 B4  | 
w:  mek  is  |  tik ba  |  li    |  Nak ti  |  miz  el  | 
d4 c4  | B8  | z4 A2B2  | c4 d4  | c4 B4  | f8  | \
w:  de  kal  |  sın   |  re fa  |  hı mız   |  ço ğal  |  sın    | 
z4 g2f2  | e4 d4  | ^c4 d4  | e8  | z4 A2B2  | 
w:  De ğil   |  mi dir   |  bor cu  |  muz   |  dü şün  | 
c4 e4  | d4 B4  | d8  | d2d2 d2d2  | d2d6  | g16  | \
w:  mek  is  |  tik ba  |  li    |  Ey  muh te rem   |  a ha  |  li   | 
d2e2 d2c2  | B4 c4  | d16  | f2f2 f2f2  | 
w:  kul la nın  yer  |  li  ma  |  li    |  Ey  muh te rem   | 
=e2g6  | f16  | d2e2 d2c2  | B4 A4  | G16  | |


